icons/rss3-alt-2.svg

<svg xmlns="http://www.w3.org/2000/svg" fill="none" viewBox="0 0 1024 1024">
  <path fill="#1477FB" d="M1021.06 1009.36c-5.24 8.48-14.21 13.87-23.924 13.87H786.347c-10.465 0-20.182-6.16-24.667-16.18L642.084 758.947c-8.223-16.181-24.667-26.968-42.607-26.968H235.456c-7.475 0-13.455 6.164-13.455 13.869v249.643c0 16.179-12.707 28.509-27.657 28.509H27.657C11.96 1024 0 1010.9 0 995.491V531.648c0-16.181 12.707-28.509 27.657-28.509h560.608c20.182 0 37.374-16.951 37.374-38.525V267.365c0-20.804-16.444-38.525-37.374-38.525H27.657C11.96 228.84 0 215.741 0 200.331V28.509C0 12.328 12.707 0 27.657 0h586.77c15.697 0 27.657 13.099 27.657 28.509v136.379c0 20.804 16.444 38.525 37.374 38.525h140.526c15.697 0 27.656 13.099 27.656 28.509v268.135c0 16.181-12.707 28.509-27.656 28.509H679.458c-20.182 0-37.374 16.951-37.374 38.525v98.625c0 26.967 20.929 48.541 47.091 48.541h185.374c10.465 0 20.182 6.164 24.667 16.181l121.844 251.955c4.48 9.246 3.73 19.267-1.5 27.737z"/>
</svg>

<svg viewBox="0 0 1024 1024" fill="none" xmlns="http://www.w3.org/2000/svg">
  <path
    d="M1021.06 1009.36C1015.82 1017.84 1006.85 1023.23 997.136 1023.23H786.347C775.882 1023.23 766.165 1017.07 761.68 1007.05L642.084 758.947C633.861 742.766 617.417 731.979 599.477 731.979H235.456C227.981 731.979 222.001 738.143 222.001 745.848V995.491C222.001 1011.67 209.294 1024 194.344 1024H27.6567C11.9597 1024 0 1010.9 0 995.491V531.648C0 515.467 12.7071 503.139 27.6567 503.139H588.265C608.447 503.139 625.639 486.188 625.639 464.614V267.365C625.639 246.561 609.195 228.84 588.265 228.84H27.6567C11.9597 228.84 0 215.741 0 200.331V28.5086C0 12.328 12.7071 0 27.6567 0H614.427C630.124 0 642.084 13.0985 642.084 28.5086V164.888C642.084 185.692 658.528 203.413 679.458 203.413H819.984C835.681 203.413 847.64 216.512 847.64 231.922V500.057C847.64 516.238 834.933 528.566 819.984 528.566H679.458C659.276 528.566 642.084 545.517 642.084 567.091V665.716C642.084 692.683 663.013 714.257 689.175 714.257H874.549C885.014 714.257 894.731 720.421 899.216 730.438L1021.06 982.393C1025.54 991.639 1024.79 1001.66 1019.56 1010.13L1021.06 1009.36Z"
    fill="#1477FB" />
</svg>
